!!!OTL: Xingfushenghuo yaolaidao
!!!ARE: Asia, China, Fujian Jianou
!! II, 566
!!!SCT: C1992
!!!YEM: Copyright 1995, estate of Helmut Schaffrath.
**kern
*ICvox
*Ivox
!! Mixed meters:  2/4; 1/4
*M1/4
*k[f#]
*G:
{4ee
16ee
16gg
16ee
16dd
=1
8gg
16ee
16dd
4ee}
=2
{8.dd
16ee
4gg
=3
16ee
16gg
16ee
16b
4dd}
=4
{16dd
16dd
16dd
16dd
16ee
16dd
16ee
16gg
=5
16gg
8ee
16dd
4b}
=6
{8.dd
16b
8a
16b
16a
=7
2g}
=8
{16ee
16ee
16ee
16dd
8gg
16gg
16ee
=9
4dd
4dd}
=10
{8.dd
16ee
4gg
=11
16ee
16gg
16ee
16b
4dd}
=12
{4dd
16dd
16dd
16dd
16dd
=13
8ee
8gg
8.ee
16dd
=14
4b}
=15
*M2/4
{8.dd
16b
8a
16b
16a
=16
4g
4g}
=17
{16ee
16ee
16ee
16dd
16ee
8gg
16ee
=18
4dd
4dd}
=19
{8.dd
16ee
4gg
=20
16ee
16gg
16ee
16b
4dd}
=21
{4dd
16dd
16dd
16dd
16dd
=22
8ee
8gg
8.ee
16dd
=23
*M1/4
4b}
=24
*M2/4
{8.dd
16b
8a
16b
16a
=25
2g}
=26
{16ee
16ee
16ee
16dd
8ee
16gg
16ee
=27
4dd
4dd}
=28
{8.dd
16ee
4gg
=29
16ee
16gg
16ee
16b
4dd}
=30
{16dd
16dd
16dd
16dd
8ee
8gg
=31
16ee
16gg
16ee
16dd
4b}
=32
{8.dd
16b
8a
16b
16a
=33
2g}
=34
*M1/4
{8a
8b}
=35
{8a
8b}
=36
{8a
8b}
=37
{8a
8b}
=38
{4a
4r}
==
!!!AGN: Haozi, Gunjian haozi
!!!AMT: irregular
!!!AIN: vox
!!!EED: Helmut Schaffrath
!!!EEV: 1.0
*-
